src/actions/16/snap-nodes-intersection.svg

<svg xmlns="http://www.w3.org/2000/svg" viewBox="0 0 16 16">
  <defs id="defs3051">
    <style type="text/css" id="current-color-scheme">
      .ColorScheme-Text {
        color:#363636;
      }
      .ColorScheme-Highlight {
        color:#a0b6cb;
      }
      </style>
  </defs>
  <path 
        style="fill:currentColor;fill-opacity:1;stroke:none"
        d="m13.646 1.646l-4.354 4.354h.707v.707l4.354-4.354zm-11.646.354v1h1v-1zm2 2v1h1v-1zm2 5.293l-4.354 4.354.707.707 4.354-4.354h-.707zm5 1.707v1h1v-1zm2 2v1h1v-1z"
        class="ColorScheme-Text"
        />
  <path
        style="fill:currentColor;fill-opacity:1;stroke:none"
        d="m6 6v4h4v-4zm1 1h2v2h-2z"
        class="ColorScheme-Highlight"
      />
</svg>

<svg xmlns="http://www.w3.org/2000/svg" viewBox="0 0 16 16">
    <path d="M13.646 1.646 9.292 6h.707v.707l4.354-4.354zM2 2v1h1V2zm2 2v1h1V4zm2 5.293-4.354 4.354.707.707L6.707 10H6zM11 11v1h1v-1zm2 2v1h1v-1z" style="fill:currentColor;fill-opacity:1;stroke:none;color:#050505;opacity:.7"/>
    <path d="M6 6v4h4V6zm1 1h2v2H7z" style="fill:currentColor;fill-opacity:1;stroke:none;color:#a0b6cb"/>
</svg>
